svgs/thin/user-hair-long.svg

<svg xmlns="http://www.w3.org/2000/svg" viewBox="0 0 448 512"><!--! Font Awesome Pro 6.4.2 by @fontawesome - https://fontawesome.com License - https://fontawesome.com/license (Commercial License) Copyright 2023 Fonticons, Inc. --><path d="M336 144v-8-8c0-5.4-.4-10.8-1.1-16H312c-22.1 0-43-10.2-56.6-27.5L251 89.9C231.2 114 201.7 128 170.5 128L112 128v8 8c0 61.9 50.1 112 112 112s112-50.1 112-112zM292.4 39.3L265.8 71.8l1.4 1.8C277.8 87.7 294.4 96 312 96h19.4c-6.8-22.8-20.6-42.5-39-56.7zM113.1 112h57.4c26.4 0 51.4-11.8 68.1-32.3L279 30.4C262.7 21.2 244 16 224 16c-56.4 0-103.1 41.7-110.9 96zM390.4 244.8c-20.6-15.4-36.1-36.2-45.2-59.6C328.1 235.7 280.3 272 224 272s-104.1-36.3-121.2-86.8c-9.1 23.4-24.6 44.1-45.2 59.6L53.3 248c-3.4 2.5-5.3 6.5-5.3 10.7C48 266 54 272 61.3 272H120c4.4 0 8 3.6 8 8s-3.6 8-8 8H61.3C45.1 288 32 274.9 32 258.7c0-9.2 4.3-17.9 11.7-23.5L48 232c30.2-22.7 48-58.2 48-96v-8C96 57.3 153.3 0 224 0s128 57.3 128 128v8c0 37.8 17.8 73.3 48 96l4.3 3.2c7.4 5.5 11.7 14.2 11.7 23.5c0 16.2-13.1 29.3-29.3 29.3H328c-4.4 0-8-3.6-8-8s3.6-8 8-8h58.7c7.4 0 13.3-6 13.3-13.3c0-4.2-2-8.1-5.3-10.7l-4.3-3.2zM16 483.6c0 6.9 5.6 12.4 12.4 12.4H419.6c6.9 0 12.4-5.6 12.4-12.4C432 402.1 365.9 336 284.4 336H163.6C82.1 336 16 402.1 16 483.6zm-16 0C0 393.2 73.2 320 163.6 320H284.4C374.8 320 448 393.2 448 483.6c0 15.7-12.7 28.4-28.4 28.4H28.4C12.7 512 0 499.3 0 483.6z"/></svg>

<svg xmlns="http://www.w3.org/2000/svg" viewBox="0 0 448 512"><!--! Font Awesome Pro 6.1.1 by @fontawesome - https://fontawesome.com License - https://fontawesome.com/license (Commercial License) Copyright 2022 Fonticons, Inc. --><path d="M390.4 244.8C369.8 229.4 354.3 208.6 345.2 185.2C328.1 235.7 280.3 272 224 272C167.7 272 119.9 235.7 102.8 185.2C93.7 208.6 78.2 229.4 57.6 244.8L53.33 248C49.98 250.5 48 254.5 48 258.7C48 266 53.97 272 61.33 272H120C124.4 272 128 275.6 128 280C128 284.4 124.4 288 120 288H61.33C45.13 288 32 274.9 32 258.7C32 249.4 36.35 240.7 43.73 235.2L48 232C78.22 209.3 96 173.8 96 136V128C96 57.31 153.3 0 224 0C294.7 0 352 57.31 352 128V136C352 173.8 369.8 209.3 400 232L404.3 235.2C411.7 240.7 416 249.4 416 258.7C416 274.9 402.9 288 386.7 288H328C323.6 288 320 284.4 320 280C320 275.6 323.6 272 328 272H386.7C394 272 400 266 400 258.7C400 254.5 398 250.5 394.7 248L390.4 244.8zM336 144V128C336 122.6 335.6 117.2 334.9 112H312C289.9 112 269 101.8 255.4 84.49L250.1 89.86C231.2 113.1 201.7 128 170.5 128H112V144C112 205.9 162.1 256 224 256C285.9 256 336 205.9 336 144L336 144zM265.8 71.75L267.2 73.6C277.8 87.7 294.4 96 312 96H331.4C324.6 73.21 310.7 53.46 292.4 39.29L265.8 71.75zM113.1 112H170.5C196.9 112 221.9 100.2 238.6 79.72L278.1 30.4C262.7 21.23 243.1 15.1 224 15.1C167.6 15.1 120.9 57.72 113.1 111.1V112zM0 483.6C0 393.2 73.23 320 163.6 320H284.4C374.8 320 448 393.2 448 483.6C448 499.3 435.3 512 419.6 512H28.44C12.74 512 0 499.3 0 483.6zM28.44 496H419.6C426.4 496 432 490.4 432 483.6C432 402.1 365.9 336 284.4 336H163.6C82.06 336 16 402.1 16 483.6C16 490.4 21.57 496 28.44 496z"/></svg>
